svgs/light/stairs.svg

<svg xmlns="http://www.w3.org/2000/svg" viewBox="0 0 576 512"><!-- Font Awesome Pro 6.0.0-alpha2 by @fontawesome - https://fontawesome.com License - https://fontawesome.com/license (Commercial License) --><path d="M576 48C576 56.844 568.844 64 560 64H448V176C448 184.844 440.844 192 432 192H304V336C304 344.844 296.844 352 288 352H160V464C160 472.844 152.844 480 144 480H16C7.156 480 0 472.844 0 464S7.156 448 16 448H128V336C128 327.156 135.156 320 144 320H272V176C272 167.156 279.156 160 288 160H416V48C416 39.156 423.156 32 432 32H560C568.844 32 576 39.156 576 48Z"/></svg>

<svg xmlns="http://www.w3.org/2000/svg" viewBox="0 0 576 512"><!--! Font Awesome Pro 6.4.0 by @fontawesome - https://fontawesome.com License - https://fontawesome.com/license (Commercial License) Copyright 2023 Fonticons, Inc. --><path d="M416 48c0-8.8 7.2-16 16-16H560c8.8 0 16 7.2 16 16s-7.2 16-16 16H448V176c0 8.8-7.2 16-16 16H304V336c0 8.8-7.2 16-16 16H160V464c0 8.8-7.2 16-16 16H16c-8.8 0-16-7.2-16-16s7.2-16 16-16H128V336c0-8.8 7.2-16 16-16H272V176c0-8.8 7.2-16 16-16H416V48z"/></svg>
